packages/ffe-icons/icons/open/400/sm/notes.svg

<svg xmlns="http://www.w3.org/2000/svg" height="20" viewBox="0 -960 960 960" width="20"><path d="M180.289-264Q165-264 154.5-274.289q-10.5-10.29-10.5-25.5Q144-315 154.342-325.5q10.343-10.5 25.632-10.5h359.737Q555-336 565.5-325.711q10.5 10.29 10.5 25.5Q576-285 565.658-274.5 555.315-264 540.026-264H180.289ZM180-444q-15.3 0-25.65-10.289-10.35-10.29-10.35-25.5Q144-495 154.35-505.5 164.7-516 180-516h600q15.3 0 25.65 10.289 10.35 10.29 10.35 25.5Q816-465 805.65-454.5 795.3-444 780-444H180Zm0-180q-15.3 0-25.65-10.289-10.35-10.29-10.35-25.5Q144-675 154.35-685.5 164.7-696 180-696h600q15.3 0 25.65 10.289 10.35 10.29 10.35 25.5Q816-645 805.65-634.5 795.3-624 780-624H180Z"/></svg>

<svg xmlns="http://www.w3.org/2000/svg" height="20" viewBox="0 -960 960 960" width="20"><path d="M180.29-264q-15.29 0-25.79-10.29t-10.5-25.5q0-15.21 10.34-25.71t25.63-10.5h359.74q15.29 0 25.79 10.29t10.5 25.5q0 15.21-10.34 25.71T540.03-264H180.29ZM180-444q-15.3 0-25.65-10.29Q144-464.58 144-479.79t10.35-25.71Q164.7-516 180-516h600q15.3 0 25.65 10.29Q816-495.42 816-480.21t-10.35 25.71Q795.3-444 780-444H180Zm0-180q-15.3 0-25.65-10.29Q144-644.58 144-659.79t10.35-25.71Q164.7-696 180-696h600q15.3 0 25.65 10.29Q816-675.42 816-660.21t-10.35 25.71Q795.3-624 780-624H180Z"/></svg>
